X: 22138
T: Kwallen
R: barndance
M: 4/4
K: Aminor
ed|:"Am" e2a2e2d2|e4 A2Bc|"G"d2g2B2f2|"Am"e2a2A2ed|
"Am"e2a2e2d2|e4 A2AG|"F"F2c2 "G"B3A|1 "Am"A6ed:|2 "Am"A6AB||
|:"F"c2c2 "G"d2d2|"C"e4c2ef|"Em"g2g2 "D"a2^f2|"G"g6gf|
"C"e2c2 cd ec|"G"d2G2 "E"^g4|"F"a2e2 "G"dcB2|1 "Am"A6AB:|2 "Am"A6z2||

